X: 1
T: Sean Reid's
R: reel
M: 4/4
L: 1/8
K: Gmaj
DG~G2 BG~G2|cA~A2 dBcA|DGGF GABd|cAFG AGG2|
DG~G2 BG~G2|cA~A2 d2ef|g2ag gfde|fdcA AGG2:|
dgga gfde|fdge fdcA|dg~g2 gfde|fdcA AGG2|
~g3a gfde|~f3g fdcA|dg~g2 bgag|fdcA AGG2:|


Tune 2249	Setting 29564

